X: 72
T:Denis Murphy's
% Nottingham Music Database
S:Trad, arr Phil Rowe
M:6/8
K:D
B|"D"A2D FED|F2A A2f|"G"g2e "D"f2d|"Em"e2d "A"Bcd|
"D"A2D FED|"D"F2A A2f|"D"a2f "A"efe|"D"d3 d2::
A|"D"d2e f3|"G"gfe "D"f3|"G"gfe "D"f2d|"Em"e2d "A"B2A|
"D"d2e f3|"G"gfe "D"f2g| "D"a2f "A"efe|"D"d3 d2:|


